X:053
L:1/8
M:6/8
K:Bb
"Spirited"B2 B BcA | B2 f fge | d2 e fdB | {/c}BAB cAF |
f2 f fga | b2 f gfe | d2e fdB | {/c}BAB cAF |
f2 f fga | b2 b bag | f2 g fdB | FGA B2 z ||

